X: 36854
T: Ships In Full Sail, The
R: jig
M: 6/8
K: Gmajor
E|DGG BGG|dBG GBd|ege dBG|AGA BGE|
DGG BGG|dBG GBd|ege dBG|AGF G2:|
A|Bdd dBd|egg g2d|edB dBG|AGA BGE|
DGG BGG|dBG GBd|ege dBG|AGF G2:|

